X:393
T:Herbert Smiths' Four Hand Reel
M:4/4
L:1/8
K:G
g2 f2 e2 d2 | c2 B2 A2 G2 | GABc d2 B2 | B2 A2 A2 d2 | 
g2 f2 e2 d2 | c2 B2 A2 G2 | GABc d2 b2 | a2 g2 a2 g2 | [M:2/4][L:1/8] g4 :| 
M:4/4
b2 bb b2 b2 | c'bag a4 | b2 bb b2 b2 | agfe d4 | 
b2 bb b2 b2 | c'bag a4 | b2 c'b a2 ba | g4 g4 :| 

